images/ic_token_vbzrx.svg

<svg height="250" viewBox="0 0 250 250" width="250" xmlns="http://www.w3.org/2000/svg"><path d="m0 125c0-69.035156 55.964844-125 125-125s125 55.964844 125 125-55.964844 125-125 125-125-55.964844-125-125zm0 0" fill="#5b88ff"/><g fill="#fff"><path d="m72.703125 11.429688c7.9375-3.660157 16.328125-6.511719 25.058594-8.453126v52.265626h-25.058594zm0 0"/><path d="m2.808594 98.507812c1.890625-8.753906 4.695312-17.167968 8.3125-25.132812h128.699218c18.792969 0 34.003907 15.257812 34.003907 34.109375v33.210937c0 18.851563-15.210938 34.109376-34.003907 34.109376h-33.109374c-18.792969 0-34.007813-15.257813-34.007813-34.109376v-24.234374h25.058594v24.054687c0 5.027344 3.9375 8.976563 8.949219 8.976563h33.109374c5.011719 0 8.949219-3.949219 8.949219-8.976563v-33.03125c0-5.027344-3.9375-8.976563-8.949219-8.976563zm0 0"/></g></svg>

<svg xmlns="http://www.w3.org/2000/svg" xmlns:xlink="http://www.w3.org/1999/xlink" width="250px" height="250px" viewBox="0 0 250 250" version="1.1">
<g id="surface1">
<path style=" stroke:none;fill-rule:nonzero;fill:rgb(35.686275%,53.333336%,100%);fill-opacity:1;" d="M 0 125 C 0 55.964844 55.964844 0 125 0 C 194.035156 0 250 55.964844 250 125 C 250 194.035156 194.035156 250 125 250 C 55.964844 250 0 194.035156 0 125 Z M 0 125 "/>
<path style=" stroke:none;fill-rule:nonzero;fill:rgb(100%,100%,100%);fill-opacity:1;" d="M 72.703125 11.429688 C 80.640625 7.769531 89.03125 4.917969 97.761719 2.976562 L 97.761719 55.242188 L 72.703125 55.242188 Z M 72.703125 11.429688 "/>
<path style=" stroke:none;fill-rule:nonzero;fill:rgb(100%,100%,100%);fill-opacity:1;" d="M 2.808594 98.507812 C 4.699219 89.753906 7.503906 81.339844 11.121094 73.375 L 139.820312 73.375 C 158.613281 73.375 173.824219 88.632812 173.824219 107.484375 L 173.824219 140.695312 C 173.824219 159.546875 158.613281 174.804688 139.820312 174.804688 L 106.710938 174.804688 C 87.917969 174.804688 72.703125 159.546875 72.703125 140.695312 L 72.703125 116.460938 L 97.761719 116.460938 L 97.761719 140.515625 C 97.761719 145.542969 101.699219 149.492188 106.710938 149.492188 L 139.820312 149.492188 C 144.832031 149.492188 148.769531 145.542969 148.769531 140.515625 L 148.769531 107.484375 C 148.769531 102.457031 144.832031 98.507812 139.820312 98.507812 Z M 2.808594 98.507812 "/>
</g>
</svg>
